blockchains/ethereum/assets/0x1A4b46696b2bB4794Eb3D4c26f1c55F9170fa4C5/logo.svg

<svg width="250" height="250" viewBox="0 0 250 250" fill="none" xmlns="http://www.w3.org/2000/svg">
<g clip-path="url(#clip0_48_12928)">
<path d="M125 250C194.036 250 250 194.036 250 125C250 55.9644 194.036 0 125 0C55.9644 0 0 55.9644 0 125C0 194.036 55.9644 250 125 250Z" fill="#C1FF3C"/>
<path fill-rule="evenodd" clip-rule="evenodd" d="M203.4 116.298V98.8984H186V63.9984H168.6V98.8984H133.8V185.998H151.2V116.298H168.6V185.998H203.4V168.598H186V116.298H203.4ZM107.6 159.898C107.6 164.698 103.7 168.598 98.9 168.598H64.1V133.698H98.9C103.7 133.698 107.6 137.598 107.6 142.398V159.798V159.898ZM64.1 81.3984H90.2C95 81.3984 98.9 85.2984 98.9 90.0984V107.498C98.9 112.298 95 116.198 90.2 116.198H64.1V81.2984V81.3984ZM110.6 122.898V120.498C114.2 117.298 116.4 112.698 116.4 107.498V86.3984C116.4 73.9984 106.3 63.8984 93.9 63.8984H46.7V185.898H101.9C114.7 185.898 125.1 175.498 125.1 162.698V142.398C125.1 133.398 119.2 125.498 110.6 122.898Z" fill="black"/>
</g>
<defs>
<clipPath id="clip0_48_12928">
<rect width="250" height="250" fill="white"/>
</clipPath>
</defs>
</svg>

<svg fill="none" height="250" viewBox="0 0 250 250" width="250" xmlns="http://www.w3.org/2000/svg" xmlns:xlink="http://www.w3.org/1999/xlink"><clipPath id="a"><path d="m0 0h250v250h-250z"/></clipPath><g clip-path="url(#a)"><path d="m125 250c69.036 0 125-55.964 125-125 0-69.0356-55.964-125-125-125-69.0356 0-125 55.9644-125 125 0 69.036 55.9644 125 125 125z" fill="#c1ff3c"/><path clip-rule="evenodd" d="m203.4 116.298v-17.3996h-17.4v-34.9h-17.4v34.9h-34.8v87.0996h17.4v-69.7h17.4v69.7h34.8v-17.4h-17.4v-52.3zm-95.8 43.6c0 4.8-3.9 8.7-8.7 8.7h-34.8v-34.9h34.8c4.8 0 8.7 3.9 8.7 8.7v17.4zm-43.5-78.4996h26.1c4.8 0 8.7 3.9 8.7 8.7v17.3996c0 4.8-3.9 8.7-8.7 8.7h-26.1v-34.8996zm46.5 41.4996v-2.4c3.6-3.2 5.8-7.8 5.8-13v-21.0996c0-12.4-10.1-22.5-22.5-22.5h-47.2v121.9996h55.2c12.8 0 23.2-10.4 23.2-23.2v-20.3c0-9-5.9-16.9-14.5-19.5z" fill="#000" fill-rule="evenodd"/></g></svg>
